{ "compressionlevel":-1,
 "height":7,
 "infinite":false,
 "layers":[
        {
         "draworder":"topdown",
         "id":2,
         "name":"lily-pad",
         "objects":[
                {
                 "gid":1,
                 "height":180,
                 "id":1,
                 "name":"",
                 "opacity":1,
                 "rotation":0,
                 "type":"",
                 "visible":true,
                 "width":180,
                 "x":0.92572552159692,
                 "y":341.398200293222
                }, 
                {
                 "gid":1,
                 "height":128,
                 "id":2,
                 "name":"",
                 "opacity":1,
                 "rotation":0,
                 "type":"",
                 "visible":true,
                 "width":128,
                 "x":249.860222848765,
                 "y":282.571428780873
                }, 
                {
                 "gid":1,
                 "height":128,
                 "id":3,
                 "name":"",
                 "opacity":1,
                 "rotation":0,
                 "type":"",
                 "visible":true,
                 "width":128,
                 "x":154.069,
                 "y":378.988
                }, 
                {
                 "gid":1,
                 "height":128,
                 "id":4,
                 "name":"",
                 "opacity":1,
                 "rotation":0,
                 "type":"",
                 "visible":true,
                 "width":128,
                 "x":382.521,
                 "y":320.144
                }, 
                {
                 "gid":1,
                 "height":150,
                 "id":5,
                 "name":"",
                 "opacity":1,
                 "rotation":0,
                 "type":"",
                 "visible":true,
                 "width":150,
                 "x":548.669,
                 "y":444.641404463467
                }, 
                {
                 "gid":1,
                 "height":180,
                 "id":6,
                 "name":"",
                 "opacity":1,
                 "rotation":0,
                 "type":"",
                 "visible":true,
                 "width":180,
                 "x":327.139,
                 "y":558.981
                }, 
                {
                 "gid":2,
                 "height":200,
                 "id":10,
                 "name":"",
                 "opacity":1,
                 "rotation":0,
                 "type":"",
                 "visible":true,
                 "width":200,
                 "x":2583.06552111243,
                 "y":364.193191772742
                }],
         "opacity":1,
         "type":"objectgroup",
         "visible":true,
         "x":0,
         "y":0
        }, 
        {
         "draworder":"topdown",
         "id":3,
         "name":"lily-flower",
         "objects":[
                {
                 "gid":3,
                 "height":128,
                 "id":7,
                 "name":"",
                 "opacity":1,
                 "rotation":0,
                 "type":"",
                 "visible":true,
                 "width":128,
                 "x":25.9723940678922,
                 "y":299.777868839517
                }, 
                {
                 "gid":3,
                 "height":128,
                 "id":8,
                 "name":"",
                 "opacity":1,
                 "rotation":0,
                 "type":"",
                 "visible":true,
                 "width":128,
                 "x":348.344,
                 "y":520.432
                }, 
                {
                 "gid":3,
                 "height":128,
                 "id":9,
                 "name":"",
                 "opacity":1,
                 "rotation":0,
                 "type":"",
                 "visible":true,
                 "width":128,
                 "x":252.39,
                 "y":271.136428780873
                }, 
                {
                 "gid":3,
                 "height":128,
                 "id":11,
                 "name":"",
                 "opacity":1,
                 "rotation":0,
                 "type":"",
                 "visible":true,
                 "width":128,
                 "x":2612.88843630727,
                 "y":313.888132417762
                }],
         "opacity":1,
         "type":"objectgroup",
         "visible":true,
         "x":0,
         "y":0
        }],
 "nextlayerid":4,
 "nextobjectid":12,
 "orientation":"orthogonal",
 "renderorder":"right-down",
 "tiledversion":"1.12.2",
 "tileheight":128,
 "tilesets":[
        {
         "firstgid":1,
         "source":"..\/tileset\/lily.tsx"
        }],
 "tilewidth":128,
 "type":"map",
 "version":"1.10",
 "width":22
}